X:233
T:Micho Russell's
T:Sister's Reel, The
T:Mary McMahon
R:reel
H:Also played in G
Z:id:hn-reel-233
M:C|
K:D
fdec d2AG | FGAB =cAGc | Adde fded | (3B^cd ef g2ag |
fdec d2AG | FGAB =cAGc | Adde fde^c |1 Add^c d2ag :|2 Add^c d2de ||
|: fd (3efg afga | bgag fdde | ~f3g afga | bgaf ~g3e |
fefg afga | bgag fdda | bgaf gfed |1 ^cdef ~g3e :|2 (3B^cd ef g2ag ||
P:variations
|: fdec d2AG | FGAB =cAGc | Ad~d2 fded | (3Bcd ef geag |
fdec d2AG | FGAB =cAGc | Ad~d2 fde^c |1 Add^c d2ag :|2 Add^c d2de ||
|: ~f3g a2ga | bgag fdde | fdfg afga | bgaf g2ag |
~f3g a2ga | bgag fdda | bgaf gfed |1 (3B^cd ef g2ga :|2 ^cdef geag ||

